SVG/GEMZ.svg

<svg xmlns="http://www.w3.org/2000/svg" width="226.777" height="226.777" viewBox="0 0 226.777 226.777"><path d="M113.369 0C50.757 0 0 50.757 0 113.369c0 62.611 50.757 113.369 113.369 113.369 62.611 0 113.369-50.758 113.369-113.369C226.738 50.757 175.98 0 113.369 0zm27.514 71.849c0 .061-.008.119-.003.181l3.701 40.998-28.032-41.179h24.334zm-26.78 3.553l29.375 43.153h-59.21l29.835-43.153zm-27.144-3.553h24.714l-28.527 41.26 3.813-41.074c.006-.063 0-.123 0-.186zm-6.525 0h2.505l-4.295 46.27L49 111.663l31.434-39.814zm-30.227 44.193l28.91 6.295 29.593 52.836-58.503-59.131zm33.64 6.534h59.958l-29.836 53.79-30.122-53.79zm35.436 52.617l29.293-52.849 29.374-6.289-58.667 59.138zm29.795-57.068L144.9 71.849h2.38l31.933 39.825-30.135 6.451z"/></svg>

<svg version="1.1" id="Layer_1" xmlns="http://www.w3.org/2000/svg" xmlns:xlink="http://www.w3.org/1999/xlink" x="0px" y="0px"
	 width="226.777px" height="226.777px" viewBox="0 0 226.777 226.777" enable-background="new 0 0 226.777 226.777"
	 xml:space="preserve">
<path fill="#000000" d="M113.369,0C50.757,0,0,50.757,0,113.369c0,62.611,50.757,113.369,113.369,113.369
	c62.611,0,113.369-50.758,113.369-113.369C226.738,50.757,175.98,0,113.369,0z M140.883,71.849c0,0.061-0.008,0.119-0.003,0.181
	l3.701,40.998l-28.032-41.179H140.883z M114.103,75.402l29.375,43.153h-59.21L114.103,75.402z M86.959,71.849h24.714l-28.527,41.26
	l3.813-41.074C86.965,71.972,86.959,71.912,86.959,71.849z M80.434,71.849h2.505l-4.295,46.27L49,111.663L80.434,71.849z
	 M50.207,116.042l28.91,6.295l29.593,52.836L50.207,116.042z M83.847,122.576h59.958l-29.836,53.79L83.847,122.576z
	 M119.283,175.193l29.293-52.849l29.374-6.289L119.283,175.193z M149.078,118.125L144.9,71.849h2.38l31.933,39.825L149.078,118.125z
	"/>
</svg>
